X:1
T:Title
%%score ( 1 2 ) { 3 | 4 }
L:1/8
Q:1/4=105
M:4/4
K:G
V:1 treble nm="Grand Piano, Soprano"
V:2 treble 
V:3 bass nm="Choir Pad, Bass"
V:4 bass 
V:1
 D2 [Gd]2 [GB]2 [EA]2 | [EG]2 [DG]2 [DF]2 [CE]2 | [CD]2 [B,D]2 [DG]2 [DB]2 | z2 A6 | %4
w: By~A.~Hudson,~1904 * * *||||
 D2 [=Fd]2 [FB]2 [FA]2 | [=FG]2 [Ee]2 [Fd]2 [Ec]2 | [^DA]2 [=DG]2 [DB]2 [CA]2 | [CD]2 [B,G]6- | %8
w: ||||
 [B,G]2 z2 z4 |] %9
w: |
V:2
 x8 | x8 | x8 | [^CA]2 D2 C2 D2 | x8 | x8 | x8 | x8 | x8 |] %9
V:3
 D,2 B,2 D2 C2 | B,2 A,2 A,2 G,2 | A,2 B,2 B,2 G,2 | G,2 F,2 G,2 A,2 | C2 B,2 D2 C2 | %5
 D2 C2 B,2 C2 | C2[K:bass] B,2 G,2 G,2 | F,2 G,6- | G,2 z2 z4 |] %9
V:4
 z2 G,,2 G,,2 C,2 | C,2 D,2 D,2 E,2 | F,2 G,2 F,2 E,2 | A,,2 D,2 E,2 F,2 | A,2 G,2 G,2 A,2 | %5
 B,2 z2 ^G,2 A,2 | C,2 D,2 D,2 D,2 | D,2 G,,6- | G,,2 z2 z4 |] %9

